X: 515
T: The Nassau
P: Longways for as many as will
%R:
B: John Walsh "Caledonian Country Dances"
S: 3: CCD3  http://javanese.imslp.info/files/imglnks/usimg/6/61/IMSLP173105-PMLP149069-caledoniancountr00ingl.pdf p.12
Z: 2013 John Chambers <jc:trillian.mit.edu>
N: The 2nd phrase has a begin repeat but no end repeat.
M: 9/4
L: 1/4
K: Am
% - - - - - - - - - - - - - - - - - - - - - - - - -
V: 1
|: AEA B2A B^GE | AEc B2A GEC | AEc B2A B^GE | Bcd dcB cBA :|
|: A3 (^g2f/g/) aec | A2g f2e dBG | A3 ^g2a b^ge | agf edc B2A |]
% - - - - - - - - - - - - - - - - - - - - - - - - -
V: 2 clef=bass middle=d
|: a3 g2f e3 | a3 g3 c3 | a3 g2f e3 | ^g3 e3 a3 :|
|: a3 e3 A3 | a2z b2c' g3 | f3 e3 E3 | A2B c2d e2A |]
% - - - - - - - - - - - - - - - - - - - - - - - - -
%%begintext align
%% Hands across and back again.
%% First Cu. foot it and cast off, the 2d Cu. do the same,
%% first Cu. change corners with the 2d Wo. and 2d Man,
%% and lead thro' the bottom, then cast up to the top and foot it,
%% and Right and left half way,
%% turn corners with your left hand, and figure in,
%% then with your right hand and figure in,
%% Hey on your own sides, and Right and Left quite round, and turn.
%%endtext

%%sep 1 1 500
%%sep 1 1 500
